X: 30
T:Arkansas Traveller
R:barndance
S:Fiddle Players Tunebook 2
M:4/4
L:1/8
K:Amaj
E2 |\
"A"AcBA "D"F2 FF |"A"E2 EE A3 A |"E"B3 B "A"c2 c2 |"E"BcBA F2 E2 |\
"A"AcBA "D"F2 FF |"A"E2 EE A2 (3efg |"A"agae "D"faed |"E"cA B2 "A"A2 :: 
cd |\
"A"edce "D"dcBd |"A"cBAc "E"B2 EE |"A"A2 AA "Bm"B2 BB |"A"cBAc "E"B2 cd 
|\
"A"edce "D"dcBd |"A"cBAc "E"B2 (3efg |"A"agae "D"faed |"E"cA B2 "A"A2 :|
